X:1
T:Vaghi rai lucente
T:Vaghi rai lucente
T:Giovanni Nauwach
T:Source : Libro primo di Arie passegiate a una voce + BC ---Brescia---1623. Editotor : André Vierendeels (29/10/16).
T:Aria
T:Notes : Original clefs : C1, F4 Figures in BC are notated in original print
T:©
T:©
C:Giovanni Nauwach
Z:©
%%score 1 2
L:1/8
Q:1/4=98
M:4/4
K:F
V:1 treble nm="Soprano" snm="S"
V:2 bass nm="MusicXML Part"
V:1
 GABc d2 A2 | Bcd_e f2 B2 | z2 d2 _ed ed | c4 B4 | c2 c2 dcdB | cBcA BABG | _edcB A4 | G8 :: %8
w: Va- * * * * ghi|ra- * * * * i|lu- cen- * te _|stel- le,|al cui vi- * * *|vo'al- * * * mo _ _ _|splen- * * * do-|re,|
w: Per- * * * * che|far _ _ _ _ _|che'af- flit- * to _|mo- ra,|chi di voi _ _ _|s'in- * * * fiam- * * *|ma'il- * * * pet-|to,|
w: Ma _ _ _ _ se|pur _ _ _ _ sol|del mi _ o _|sten- to,|vo- stra vo- * * *|glia'o- * * * gn'hor _ _ _|s'ap- * * * pa-|ga.|
w: Deh _ _ _ _ pie-|ta _ _ _ _ _|mie bel- * le _|fa- ci,|che di lu- * * *|ce'il- * * * sol _ _ _|vin- * * * ce-|te,|
w: Fa- * * * * te'al-|men _ _ _ _ _|mio cor _ mia _|vi- ta,|che'io lan- gui- * * *|sc'a _ _ _ voi _ _ _|d'in- * * * tor-|no,|
 AB cd _ed cB | TA3 G ^F4 | ^F4 z2 B2- | B2 A2 dcdB | d4 ^c4 | dcBA G2 _ed | cBAf _edcB | ABcB A4 | %16
w: Hog- * gi'a- * mor _ con _|som- m'ho- no-|re, pren-|* di dar- * * *|* die|le _ _ _ _ fa- *||* * * * cel-|
w: per- * che _ far _ vo- *|stro di- let-|to, l'as-|* pro duol _ _ _||di _ _ _ _ chi _|v'ho- * * * * * * *|* * * * no-|
w: se _ pur _ l'al- * ma'ha- *|ve- te va-|ga, del|_ mio mal _ _ _||del _ _ _ _ mio _|tor- * * * * * * *|* * * * men-|
w: se _ di _ lo- * de'a- *|vi- de se-|te, si-|* a- te _ _ _|va- ghe|di _ _ _ _ mie _|pa- * * * * * * *||
w: che'n _ mi- * rar _ quel _|vi- so'a- dor-|no, fi-|* a la _ _ _|mor- te|an- * * * * cor _|gra- * * * * * * *|* * * * di-|
 !fermata!G8 :| %17
w: le.|
w: ra.|
w: to.|
w: ci.|
w: ta.|
V:2
"^BC" G,4 G,2 F,2 | _E,4 B,,4 |"^b" B,,4 C,2 D,2 | F,4 B,,4 | F,4 B,,4 | F,4 _E,4 | %6
"^b""^#" C,4 D,4 | G,,8 :: F,4 C,4- |"^b""^#" C,4 D,4 |"^#" D,4 G,4- | G,4 G,4 |"^#" D,4 A,,4 | %13
 B,,4 _E,4 |"^b" F,4 C,4 |"^#" D,8 | !fermata!G,,8 :| %17

